svgs/thin/audio-description-slash.svg

<svg xmlns="http://www.w3.org/2000/svg" viewBox="0 0 640 512"><!--! Font Awesome Pro 6.3.0 by @fontawesome - https://fontawesome.com License - https://fontawesome.com/license (Commercial License) Copyright 2023 Fonticons, Inc. --><path d="M96 464c-26.47 0-48-21.53-48-48V131.8L32 119.1l0 296.9c0 35.35 28.65 64 64 64L486.1 480l-20.13-16H96zM544 48c26.47 0 48 21.53 48 48v284.2l16 12.72l.0001-296.9c0-35.35-28.65-64-64-64L153.9 32l20.13 16H544zM503.4 309.8C513.9 294.5 520 275.9 520 256c0-52.94-43.06-96-96-96l-63.1 .0002C355.6 160 352 163.6 352 168v21.45l16 12.72V176h56c44.13 0 80 35.89 80 80c0 16.17-4.9 31.19-13.19 43.79L503.4 309.8zM180.4 237l-51.58 103.4c-1.969 3.953-.375 8.766 3.578 10.73C133.6 351.7 134.8 352 136 352c2.938 0 5.766-1.625 7.156-4.422L172.9 288h71.66L224.4 272h-43.55L193.2 247.2L180.4 237zM636.1 497.7L12.99 1.73C11.53 .5664 9.771 0 8.025 0C5.674 0 3.336 1.029 1.738 3.012c-2.75 3.469-2.172 8.5 1.281 11.25l623.1 496C628.5 511.4 630.2 512 631.1 512c2.344 0 4.688-1.031 6.266-3.016C641 505.5 640.4 500.5 636.1 497.7z"/></svg>

<svg xmlns="http://www.w3.org/2000/svg" viewBox="0 0 640 512"><!-- Font Awesome Pro 6.0.0-alpha2 by @fontawesome - https://fontawesome.com License - https://fontawesome.com/license (Commercial License) --><path d="M95.999 464C69.533 464 47.999 442.467 47.999 416V131.771L31.999 119.053V416C31.999 451.346 60.654 480 95.999 480H486.083L465.956 464H95.999ZM543.999 48C570.466 48 591.999 69.533 591.999 96V380.223L607.999 392.941V96C607.999 60.652 579.347 32 543.999 32H153.919L174.048 48H543.999ZM503.433 309.822C513.876 294.459 519.999 275.938 519.999 256C519.999 203.062 476.937 160 423.999 160H359.999C355.593 160 351.999 163.578 351.999 168V189.451L367.999 202.168V176H423.999C468.124 176 503.999 211.891 503.999 256C503.999 272.174 499.099 287.191 490.814 299.791L503.433 309.822ZM180.419 237.031L128.843 340.422C126.874 344.375 128.468 349.188 132.421 351.156C133.577 351.734 134.796 352 135.999 352C138.937 352 141.765 350.375 143.156 347.578L172.876 288H244.54L224.411 272H180.857L193.224 247.209L180.419 237.031ZM636.98 497.734L12.988 1.73C11.525 0.566 9.771 0 8.025 0C5.673 0 3.335 1.029 1.738 3.012C-1.012 6.48 -0.434 11.512 3.019 14.262L627.011 510.266C628.495 511.438 630.245 512 631.995 512C634.339 512 636.683 510.969 638.261 508.984C641.011 505.516 640.433 500.484 636.98 497.734Z"/></svg>
